Sources/FrostedUI/Resources/Icons.xcassets/paypal12.imageset/paypal-12.svg

<svg width="12" height="12" viewBox="0 0 12 12" fill="none" xmlns="http://www.w3.org/2000/svg" data-fui-icon="true">
  <g clip-path="url(#clip0_882_251)">
    <path
      d="M6.63025 0.661133C8.28107 0.661213 9.26688 1.26331 9.76892 2.10742C9.84062 2.22803 9.89869 2.3504 9.94763 2.4707C10.7013 2.85882 11.129 3.41412 11.348 3.96484C11.5808 4.55025 11.5606 5.0822 11.5355 5.31934C11.5281 5.3893 11.5186 5.45637 11.5111 5.5127V5.5166C11.4656 5.8565 11.2749 6.85648 10.5023 7.7832C9.70229 8.74249 8.35205 9.53414 6.16931 9.53418H5.86169L5.59607 10.8652C5.4828 11.4311 4.98571 11.8389 4.40857 11.8389L2.93689 11.8379C2.22639 11.8378 1.6958 11.1845 1.84216 10.4893L1.849 10.4561H1.55994C0.844351 10.456 0.312042 9.79327 0.467163 9.09473L2.05115 1.96973C2.22137 1.20526 2.89974 0.661149 3.68298 0.661133H6.63025ZM9.99841 4.6543C9.86349 5.07039 9.60292 5.63288 9.09509 6.16504C8.28613 7.01267 6.94428 7.69141 4.7865 7.69141H4.45056L3.98865 9.53906C3.90655 9.8672 3.69381 10.1341 3.41541 10.2939L3.40662 10.3379H4.17126L4.43787 9.00781L4.46326 8.90332C4.61329 8.39233 5.08434 8.0342 5.62537 8.03418H6.16931C7.94528 8.03414 8.8586 7.41236 9.34998 6.82324C9.86801 6.20201 9.99693 5.51849 10.0238 5.31738L10.0248 5.31348C10.0327 5.25423 10.0384 5.20731 10.0433 5.16113C10.0525 5.0741 10.0598 4.87739 9.99841 4.6543ZM3.68298 2.16113C3.60262 2.16115 3.53255 2.21749 3.51501 2.2959L2.03552 8.95605H2.58826L3.05017 7.1084L3.07947 7.00879C3.24587 6.52337 3.70427 6.19142 4.22498 6.19141H4.7865C6.60712 6.19141 7.53089 5.63198 8.01013 5.12988C8.50854 4.60759 8.62382 4.04458 8.6449 3.9043C8.6504 3.86762 8.65527 3.83122 8.65955 3.79297C8.67605 3.64496 8.68959 3.22837 8.47888 2.87402C8.30866 2.58794 7.88435 2.16121 6.63025 2.16113H3.68298Z"
      fill="currentColor"
    />
  </g>
  <defs>
    <clipPath id="clip0_882_251"><path fill="currentColor" d="M0 0H12V12H0z" /></clipPath>
  </defs>
</svg>

<svg xmlns="http://www.w3.org/2000/svg" width="12" height="12" fill="none" data-fui-icon="true" viewBox="0 0 12 12"><g clip-path="url(#a)"><path fill="currentColor" d="M6.63.661c1.651 0 2.637.602 3.139 1.446q.107.182.179.364c.753.388 1.181.943 1.4 1.494.233.585.213 1.117.188 1.354q-.012.107-.025.194v.004a4.6 4.6 0 0 1-1.009 2.266c-.8.96-2.15 1.751-4.333 1.751h-.307l-.266 1.331c-.113.566-.61.974-1.187.974l-1.472-.001c-.71 0-1.241-.653-1.095-1.349l.007-.033h-.29A1.12 1.12 0 0 1 .468 9.095L2.051 1.97A1.67 1.67 0 0 1 3.683.66zm3.368 3.993a3.95 3.95 0 0 1-.903 1.511c-.809.848-2.15 1.526-4.308 1.526H4.45L3.989 9.54a1.2 1.2 0 0 1-.574.755l-.008.044h.764l.267-1.33.025-.105c.15-.51.621-.869 1.162-.869h.544c1.776 0 2.69-.622 3.181-1.21a3.1 3.1 0 0 0 .674-1.507v-.004c.009-.059.014-.106.02-.152.008-.087.016-.284-.046-.507M3.683 2.161c-.08 0-.15.056-.168.135l-1.48 6.66h.553l.462-1.848.03-.1a1.21 1.21 0 0 1 1.145-.817h.562c1.82 0 2.744-.559 3.223-1.061a2.4 2.4 0 0 0 .635-1.226l.015-.111c.016-.148.03-.565-.181-.919-.17-.286-.595-.713-1.849-.713z"/></g><defs><clipPath id="a"><path fill="currentColor" d="M0 0h12v12H0z"/></clipPath></defs></svg>
